X:7
%%staffsep .8in
%%staffwidth 750
T:荷塘月色 (Moonlight over the Lotus Pond)
T:(Bass Hulusi in Bb 2)
C:Composed by ZHANG Chao
C:Arranged by LUO Zijun
L:1/8
M:4/4
Q:1/4=98
%%barnumbers 0
%%measurenb 0
V:7 clef=treble
%%jianpu 1
%%MIDI program 5
K:Bbmaj
%%visualtranspose -10_of_semitones
B2 F2 B4 | G2 B2 G4 | B2 F2 G4 | F2 c2 F4 |
B2 F2 B4 | G2 B2 G4 | B2 F2 G4 | B2 F2 B4 ||
B2 F2 B4 | G2 B2 G4 | G2 c2 F4 | B2 F2 B4 |
B2 F2 B4 | G2 B2 G4 | G2 c2 F4 | c2 F2 B4 |
|: B2 F2 B4 | G2 B2 G4 | G2 c2 F4 | B2 F2 B4 |
B2 F2 B4 | G2 B2 G4 | G2 c2 F4 | c2 d2 B4 ||
B2 F2 B4 | G2 B2 G4 | B2 F2 G2 B2 | F2 c2 F4 |
B2 F2 B4 | G2 B2 G4 | c2 G2 c4 | B2 F2 B4 ||
B2 F2 B4 | G2 B2 G4 | B2 F2 G4 | F2 c2 F4 | 
B2 F2 B4 | G2 B2 G4 | B2 F2 G4 |1 B2 F2 B4 :|2 B2 F2 B4 || B8 |]

